src/assets/icons/spring.svg

<svg version="1.1" id="spring-original-wordmark-Layer_1" xmlns="http://www.w3.org/2000/svg" viewBox="0 0 128 128" xml:space="preserve"><style/><g id="spring-original-wordmark-surface1" fill="#5FB832"><path d="M1.7 98.6c-.6-.3-1-1-1-1.8 0-1.2.9-2.1 2.1-2.1.4 0 .8.1 1.1.3 2.2 1.5 4.6 2.2 6.7 2.2 2.3 0 3.6-1 3.6-2.5v-.1c0-1.8-2.5-2.4-5.2-3.2-3.4-1-7.2-2.4-7.2-6.8v-.1c0-4.4 3.6-7 8.2-7 2.5 0 5 .7 7.3 1.9.7.4 1.3 1.1 1.3 2 0 1.2-1 2.1-2.2 2.1-.4 0-.7-.1-1.1-.3-1.9-1-3.8-1.6-5.4-1.6-2.1 0-3.2 1-3.2 2.3v.1c0 1.7 2.5 2.4 5.2 3.3 3.4 1 7.2 2.6 7.2 6.7v.1c0 4.9-3.8 7.3-8.6 7.3-2.9 0-6.1-.9-8.8-2.8M39.8 89.5c0-4.5-3-7.4-6.6-7.4s-6.7 3-6.7 7.4v.1c0 4.4 3.1 7.4 6.7 7.4 3.6-.2 6.6-3 6.6-7.5m-18.4-9.3c0-1.5 1.1-2.7 2.6-2.7s2.7 1.2 2.7 2.7v1.6c1.7-2.4 4.1-4.3 7.8-4.3 5.4 0 10.7 4.3 10.7 11.9v.1c0 7.6-5.2 11.9-10.7 11.9-3.8 0-6.2-1.9-7.8-4v8.1c0 1.5-1.2 2.6-2.7 2.6-1.4 0-2.6-1.1-2.6-2.6V80.2M47.4 80.1c0-1.5 1.1-2.7 2.6-2.7s2.7 1.2 2.7 2.7v1.3c.3-2 3.5-3.9 5.8-3.9 1.7 0 2.6 1.1 2.6 2.6 0 1.4-.9 2.3-2.1 2.5-3.8.7-6.4 3.9-6.4 8.5v7.6c0 1.4-1.2 2.6-2.7 2.6-1.4 0-2.6-1.1-2.6-2.6V80.1M63.5 80.1c0-1.5 1.2-2.7 2.7-2.7 1.5 0 2.7 1.2 2.7 2.7v18.6c0 1.5-1.2 2.6-2.7 2.6-1.5 0-2.7-1.1-2.7-2.6V80.1M71.2 80.2c0-1.5 1.2-2.7 2.7-2.7s2.8 1.2 2.8 2.7v1.1c1.5-2.1 3.8-3.8 7.5-3.8 5.4 0 8.5 3.5 8.5 8.8v12.4c0 1.5-1.2 2.6-2.7 2.6s-2.8-1.1-2.8-2.6V87.9c0-3.6-1.9-5.6-5.1-5.6-3.2 0-5.4 2.1-5.4 5.7v10.7c0 1.5-1.2 2.6-2.8 2.6-1.5 0-2.7-1.1-2.7-2.6V80.2M106.5 96.9c-3.7 0-6.8-2.8-6.8-7.4v-.1c0-4.5 3.1-7.4 6.8-7.4 3.7 0 6.9 3 6.9 7.4v.1c0 4.4-3.2 7.4-6.9 7.4m9.5-19.3c-1.5 0-2.7 1.2-2.7 2.7v1.6c-1.8-2.4-4.2-4.3-8.1-4.3-5.6 0-11 4.3-11 12v.1c0 7.6 5.4 12 11 12 3.9 0 6.4-1.9 8.1-4-.3 4.2-2.9 6.3-7.5 6.3-2.7 0-5.1-.7-7.3-1.8-.3-.1-.6-.2-1-.2-1.3 0-2.3 1-2.3 2.2 0 1 .6 1.7 1.5 2.1 2.9 1.4 5.8 2.1 9.2 2.1 4.3 0 7.6-1 9.8-3.1 2-1.9 3.1-4.8 3.1-8.7V80.2c-.1-1.5-1.3-2.6-2.8-2.6M68.9 71.1c0 1.4-1.2 2.6-2.7 2.6-1.5 0-2.7-1.2-2.7-2.6 0-1.4 1.2-2.6 2.7-2.6 1.5 0 2.7 1.2 2.7 2.6M82.9 53.8C77 61.6 64.3 59 56.1 59.3c0 0-1.4.1-2.9.3 0 0 .6-.2 1.2-.5 5.7-1.9 8.4-2.3 11.9-4.1 6.5-3.3 13-10.4 14.3-17.8-2.5 7.1-10 13.2-16.9 15.7-4.7 1.7-13.2 3.3-13.2 3.3l-.3-.2c-5.8-2.7-6-15 4.6-18.9 4.6-1.7 9-.8 14-1.9 5.3-1.2 11.5-5.1 14-10.2 2.8 8.3 6.2 21 .1 28.8zm.1-31.2c-.7 1.6-1.6 3.1-2.6 4.4-4.4-4.4-10.5-7.1-17.3-7.1C49.8 19.9 39 30.5 39 43.4c0 6.8 3 12.9 7.7 17.2l.5.5c-.9-.7-1-2-.3-2.8.7-.9 2-1 2.9-.3s1 2 .3 2.8c-.7.9-2 1-2.9.3l.4.3c4.2 3.4 9.6 5.5 15.5 5.5 12.7 0 23.1-9.7 24-21.8.8-5.9-1-13.5-4.1-22.5M125.1 79.2h-.9v1.2h.9c.3 0 .6-.2.6-.6 0-.4-.3-.6-.6-.6zm.5 3l-.9-1.4h-.6v1.4h-.5v-3.4h1.4c.6 0 1.1.4 1.1 1 0 .8-.7 1-.9 1l.9 1.4h-.5zm-.8-4.3c-1.4 0-2.6 1.1-2.6 2.5s1.2 2.5 2.6 2.5c1.4 0 2.6-1.1 2.6-2.5 0-1.3-1.2-2.5-2.6-2.5zm0 5.6c-1.7 0-3.1-1.3-3.1-3s1.4-3 3.1-3c1.7 0 3.1 1.3 3.1 3 0 1.6-1.4 3-3.1 3"/></g></svg>

<svg width="128" height="128" viewBox="0 0 128 128" fill="none" xmlns="http://www.w3.org/2000/svg">
<path d="M1.69995 98.6C1.09995 98.3 0.699951 97.6 0.699951 96.8C0.699951 95.6 1.59995 94.7 2.79995 94.7C3.19995 94.7 3.59995 94.8 3.89995 95C6.09995 96.5 8.49995 97.2 10.6 97.2C12.9 97.2 14.2 96.2 14.2 94.7V94.6C14.2 92.8 11.7 92.2 8.99995 91.4C5.59995 90.4 1.79995 89 1.79995 84.6V84.5C1.79995 80.1 5.39995 77.5 9.99995 77.5C12.5 77.5 14.9999 78.2 17.2999 79.4C17.9999 79.8 18.6 80.5 18.6 81.4C18.6 82.6 17.6 83.5 16.4 83.5C16 83.5 15.7 83.4 15.3 83.2C13.4 82.2 11.5 81.6 9.89995 81.6C7.79995 81.6 6.69995 82.6 6.69995 83.9V84C6.69995 85.7 9.19995 86.4 11.9 87.3C15.3 88.3 19.1 89.9 19.1 94V94.1C19.1 99 15.3 101.4 10.5 101.4C7.59995 101.4 4.39995 100.5 1.69995 98.6ZM39.7999 89.5C39.7999 85 36.8 82.1 33.2 82.1C29.6 82.1 26.5 85.1 26.5 89.5V89.6C26.5 94 29.6 97 33.2 97C36.8 96.8 39.7999 94 39.7999 89.5ZM21.4 80.2C21.4 78.7 22.5 77.5 24 77.5C25.5 77.5 26.7 78.7 26.7 80.2V81.8C28.4 79.4 30.8 77.5 34.5 77.5C39.9 77.5 45.2 81.8 45.2 89.4V89.5C45.2 97.1 40 101.4 34.5 101.4C30.7 101.4 28.3 99.5 26.7 97.4V105.5C26.7 107 25.5 108.1 24 108.1C22.6 108.1 21.4 107 21.4 105.5V80.2ZM47.4 80.1C47.4 78.6 48.5 77.4 50 77.4C51.5 77.4 52.7 78.6 52.7 80.1V81.4C53 79.4 56.2 77.5 58.5 77.5C60.2 77.5 61.0999 78.6 61.0999 80.1C61.0999 81.5 60.2 82.4 59 82.6C55.2 83.3 52.5999 86.5 52.5999 91.1V98.7C52.5999 100.1 51.4 101.3 49.9 101.3C48.5 101.3 47.2999 100.2 47.2999 98.7V80.1M63.5 80.1C63.5 78.6 64.7 77.4 66.2 77.4C67.7 77.4 68.9 78.6 68.9 80.1V98.7C68.9 100.2 67.7 101.3 66.2 101.3C64.7 101.3 63.5 100.2 63.5 98.7V80.1ZM71.2 80.2C71.2 78.7 72.4 77.5 73.9 77.5C75.4 77.5 76.7 78.7 76.7 80.2V81.3C78.2 79.2 80.5 77.5 84.2 77.5C89.6 77.5 92.7 81 92.7 86.3V98.7C92.7 100.2 91.5 101.3 90 101.3C88.5 101.3 87.2 100.2 87.2 98.7V87.9C87.2 84.3 85.3 82.3 82.1 82.3C78.9 82.3 76.7 84.4 76.7 88V98.7C76.7 100.2 75.5 101.3 73.9 101.3C72.4 101.3 71.2 100.2 71.2 98.7V80.2ZM106.5 96.9C102.8 96.9 99.7 94.1 99.7 89.5V89.4C99.7 84.9 102.8 82 106.5 82C110.2 82 113.4 85 113.4 89.4V89.5C113.4 93.9 110.2 96.9 106.5 96.9ZM116 77.6C114.5 77.6 113.3 78.8 113.3 80.3V81.9C111.5 79.5 109.1 77.6 105.2 77.6C99.6 77.6 94.2 81.9 94.2 89.6V89.7C94.2 97.3 99.6 101.7 105.2 101.7C109.1 101.7 111.6 99.8 113.3 97.7C113 101.9 110.4 104 105.8 104C103.1 104 100.7 103.3 98.5 102.2C98.2 102.1 97.9 102 97.5 102C96.2 102 95.2 103 95.2 104.2C95.2 105.2 95.8 105.9 96.7 106.3C99.6 107.7 102.5 108.4 105.9 108.4C110.2 108.4 113.5 107.4 115.7 105.3C117.7 103.4 118.8 100.5 118.8 96.6V80.2C118.7 78.7 117.5 77.6 116 77.6ZM68.9 71.1C68.9 72.5 67.7 73.7 66.2 73.7C64.7 73.7 63.5 72.5 63.5 71.1C63.5 69.7 64.7 68.5 66.2 68.5C67.7 68.5 68.9 69.7 68.9 71.1ZM82.9 53.8C77 61.6 64.2999 59 56.0999 59.3C56.0999 59.3 54.7 59.4 53.2 59.6C53.2 59.6 53.8 59.4 54.4 59.1C60.1 57.2 62.8 56.8 66.3 55C72.8 51.7 79.3 44.6 80.6 37.2C78.1 44.3 70.6 50.4 63.7 52.9C59 54.6 50.5 56.2 50.5 56.2L50.2 56C44.4 53.3 44.1999 41 54.7999 37.1C59.3999 35.4 63.8 36.3 68.8 35.2C74.1 34 80.3 30.1 82.8 25C85.6 33.3 89 46 82.9 53.8ZM83 22.6C82.3 24.2 81.4 25.7 80.4 27C76 22.6 69.8999 19.9 63.0999 19.9C49.7999 19.9 39 30.5 39 43.4C39 50.2 42 56.3 46.7 60.6L47.2 61.1C46.3 60.4 46.2 59.1 46.9 58.3C47.6 57.4 48.8999 57.3 49.7999 58C50.6999 58.7 50.7999 60 50.0999 60.8C49.3999 61.7 48.1 61.8 47.2 61.1L47.5999 61.4C51.7999 64.8 57.1999 66.9 63.0999 66.9C75.7999 66.9 86.2 57.2 87.1 45.1C87.9 39.2 86.1 31.6 83 22.6ZM125.1 79.2H124.2V80.4H125.1C125.4 80.4 125.7 80.2 125.7 79.8C125.7 79.4 125.4 79.2 125.1 79.2ZM125.6 82.2L124.7 80.8H124.1V82.2H123.6V78.8H125C125.6 78.8 126.1 79.2 126.1 79.8C126.1 80.6 125.4 80.8 125.2 80.8L126.1 82.2H125.6ZM124.8 77.9C123.4 77.9 122.2 79 122.2 80.4C122.2 81.8 123.4 82.9 124.8 82.9C126.2 82.9 127.4 81.8 127.4 80.4C127.4 79.1 126.2 77.9 124.8 77.9ZM124.8 83.5C123.1 83.5 121.7 82.2 121.7 80.5C121.7 78.8 123.1 77.5 124.8 77.5C126.5 77.5 127.9 78.8 127.9 80.5C127.9 82.1 126.5 83.5 124.8 83.5Z" fill="white"/>
</svg>
